remix/System/eye-fill.svg

<svg viewBox="0 0 24 24" fill="currentColor" xmlns="http://www.w3.org/2000/svg"><path d="M1.18164 12C2.12215 6.87976 6.60812 3 12.0003 3C17.3924 3 21.8784 6.87976 22.8189 12C21.8784 17.1202 17.3924 21 12.0003 21C6.60812 21 2.12215 17.1202 1.18164 12ZM12.0003 17C14.7617 17 17.0003 14.7614 17.0003 12C17.0003 9.23858 14.7617 7 12.0003 7C9.23884 7 7.00026 9.23858 7.00026 12C7.00026 14.7614 9.23884 17 12.0003 17ZM12.0003 15C10.3434 15 9.00026 13.6569 9.00026 12C9.00026 10.3431 10.3434 9 12.0003 9C13.6571 9 15.0003 10.3431 15.0003 12C15.0003 13.6569 13.6571 15 12.0003 15Z"/></svg>

<svg viewBox="0 0 24 24" xmlns="http://www.w3.org/2000/svg"><path fill="none" d="M0 0h24v24H0Z"/><path d="M1.18 12C2.12 6.88 6.6 3 11.99 3c5.39 0 9.87 3.88 10.81 9 -.94 5.12-5.427 9-10.819 9C6.58 21 2.1 17.12 1.16 12Zm10.81 5v0c2.76 0 5-2.24 5-5 0-2.77-2.24-5-5-5v0c-2.77 0-5 2.23-5 5 0 2.76 2.23 5 5 5Zm0-2v0c-1.66 0-3-1.35-3-3 0-1.66 1.34-3 3-3v0c1.65 0 3 1.34 3 3 0 1.65-1.35 3-3 3Z"/></svg>
